_icons/SVG/557-dwebble.svg

<svg xmlns="http://www.w3.org/2000/svg" viewBox="0 0 32 32"><title>557-dwebble</title><polygon points="7.606 4.682 7.606 8.573 16 6.465 16 0 7.606 4.682" style="fill:#b6a799"/><polygon points="11.197 5.56 3.836 10.323 1.187 21.41 4.823 26.797 12.178 30.522 16 30.522 16 4.497 11.197 5.56" style="fill:#baac9e"/><path d="M10.838,26.15808c0,1.92123,2.31114,3.47872,5.16205,3.47872V22.6793C13.14909,22.6793,10.838,24.23679,10.838,26.15808Z" style="fill:#ef8c48"/><path d="M9.41033,19.23327c0,2.9377,2.95026,5.31913,6.58967,5.31913V13.91413C12.36059,13.91413,9.41033,16.29563,9.41033,19.23327Z" style="fill:#f79654"/><path d="M14.26663,9.34471c-.00066-.2296-.00125-.4581-.00125-.684,0-3.75573-.96525-5.24536-2.29149-5.24536-1.31748,0-1.55781,1.86323-1.561,5.56926C11.62475,11.27344,13.14008,11.24858,14.26663,9.34471Z" style="fill:#373f3f"/><ellipse cx="12.34107" cy="5.56022" rx="0.59142" ry="0.87817" style="fill:#f7f7f7"/><path d="M11.64185,26.81216c.22194,1.77552-.29725,4.204-.79691,4.204s-.72892-1.63489-.72892-2.97642.22926-1.88169.72892-1.88169S11.64185,25.47063,11.64185,26.81216Z" style="fill:#e8803a"/><path d="M8.13937,28.49907a9.24626,9.24626,0,0,1-2.61473-.51479c-3.32247-1.48224,1.512-8.30194,4.30008-8.06613C11.91928,20.26493,14.54094,29.18414,8.13937,28.49907Z" style="fill:#fca15e"/><path d="M9.4103,26.4307C9.21514,27.93139,6.984,31.67039,6.1211,32c-.99591,0-.749-3.59265-.749-5.57682S9.4103,24.44653,9.4103,26.4307Z" style="fill:#ffad68"/><polygon points="24.394 4.682 24.394 8.573 16 6.465 16 0 24.394 4.682" style="fill:#b0a091"/><polygon points="20.803 5.56 28.164 10.323 30.813 21.41 27.177 26.797 19.822 30.522 16 30.522 16 4.497 20.803 5.56" style="fill:#b6a799"/><path d="M21.16205,26.15808c0,1.92123-2.31114,3.47872-5.16205,3.47872V22.6793C18.85091,22.6793,21.16205,24.23679,21.16205,26.15808Z" style="fill:#e8803a"/><path d="M22.58967,19.23327c0,2.9377-2.95026,5.31913-6.58967,5.31913V13.91413C19.63941,13.91413,22.58967,16.29563,22.58967,19.23327Z" style="fill:#ef8c48"/><path d="M17.73337,9.34471c.00066-.2296.00125-.4581.00125-.684,0-3.75573.96525-5.24536,2.29149-5.24536,1.31748,0,1.55781,1.86323,1.561,5.56926C20.37525,11.27344,18.85992,11.24858,17.73337,9.34471Z" style="fill:#2b3332"/><ellipse cx="19.65893" cy="5.56022" rx="0.59142" ry="0.87817" style="fill:#edeeee"/><path d="M20.35815,26.81216c-.22194,1.77552.29725,4.204.79691,4.204s.72892-1.63489.72892-2.97642-.22926-1.88169-.72892-1.88169S20.35815,25.47063,20.35815,26.81216Z" style="fill:#dd7731"/><path d="M23.86063,28.49907a9.24626,9.24626,0,0,0,2.61473-.51479c3.32247-1.48224-1.512-8.30194-4.30008-8.06613C20.08072,20.26493,17.45906,29.18414,23.86063,28.49907Z" style="fill:#f79654"/><path d="M22.5897,26.4307C22.78486,27.93139,25.016,31.67039,25.8789,32c.99591,0,.749-3.59265.749-5.57682S22.5897,24.44653,22.5897,26.4307Z" style="fill:#fca15e"/><path d="M10.41286,8.98459,10.4122,9.055c0,3.75573,1.34386,7.77684,2.67015,7.77684,1.24654,0,1.195-3.9,1.18428-7.48714C13.14008,11.24858,11.62475,11.27344,10.41286,8.98459Z" style="fill:#ffb76d"/><path d="M21.58714,8.98459l.00066.07042c0,3.75573-1.34386,7.77684-2.67015,7.77684-1.24654,0-1.195-3.9-1.18428-7.48714C18.85992,11.24858,20.37525,11.27344,21.58714,8.98459Z" style="fill:#ffad68"/></svg>

<svg xmlns="http://www.w3.org/2000/svg" viewBox="0 0 32 32"><path fill="#b6a799" d="M7.606 4.682v3.891L16 6.465V0L7.606 4.682z"/><path fill="#baac9e" d="M11.197 5.56l-7.361 4.763L1.187 21.41l3.636 5.387 7.355 3.725H16V4.497L11.197 5.56z"/><path d="M10.838 26.158c0 1.921 2.311 3.479 5.162 3.479v-6.958c-2.85 0-5.162 1.558-5.162 3.48z" fill="#ef8c48"/><path d="M9.41 19.233c0 2.938 2.95 5.32 6.59 5.32v-10.64c-3.64 0-6.59 2.382-6.59 5.32z" fill="#f79654"/><path d="M14.267 9.345l-.002-.684c0-3.756-.965-5.246-2.291-5.246-1.318 0-1.558 1.864-1.561 5.57 1.212 2.288 2.727 2.264 3.854.36z" fill="#373f3f"/><ellipse cx="12.341" cy="5.56" rx=".591" ry=".878" fill="#f7f7f7"/><path d="M11.642 26.812c.222 1.776-.297 4.204-.797 4.204s-.729-1.635-.729-2.976.23-1.882.729-1.882.797-.687.797.654z" fill="#e8803a"/><path d="M8.14 28.5a9.246 9.246 0 01-2.615-.516c-3.323-1.482 1.512-8.302 4.3-8.066 2.094.347 4.716 9.266-1.686 8.581z" fill="#fca15e"/><path d="M9.41 26.43c-.195 1.501-2.426 5.24-3.289 5.57-.996 0-.749-3.593-.749-5.577s4.038-1.976 4.038.008z" fill="#ffad68"/><path fill="#b0a091" d="M24.394 4.682v3.891L16 6.465V0l8.394 4.682z"/><path fill="#b6a799" d="M20.803 5.56l7.361 4.763 2.649 11.087-3.636 5.387-7.355 3.725H16V4.497l4.803 1.063z"/><path d="M21.162 26.158c0 1.921-2.311 3.479-5.162 3.479v-6.958c2.85 0 5.162 1.558 5.162 3.48z" fill="#e8803a"/><path d="M22.59 19.233c0 2.938-2.95 5.32-6.59 5.32v-10.64c3.64 0 6.59 2.382 6.59 5.32z" fill="#ef8c48"/><path d="M17.733 9.345l.002-.684c0-3.756.965-5.246 2.291-5.246 1.318 0 1.558 1.864 1.561 5.57-1.212 2.288-2.727 2.264-3.854.36z" fill="#2b3332"/><ellipse cx="19.659" cy="5.56" rx=".591" ry=".878" fill="#edeeee"/><path d="M20.358 26.812c-.222 1.776.297 4.204.797 4.204s.729-1.635.729-2.976-.23-1.882-.729-1.882-.797-.687-.797.654z" fill="#dd7731"/><path d="M23.86 28.5a9.246 9.246 0 002.615-.516c3.323-1.482-1.512-8.302-4.3-8.066-2.094.347-4.716 9.266 1.686 8.581z" fill="#f79654"/><path d="M22.59 26.43c.195 1.501 2.426 5.24 3.289 5.57.996 0 .749-3.593.749-5.577s-4.038-1.976-4.038.008z" fill="#fca15e"/><path d="M10.413 8.985v.07c0 3.756 1.343 7.777 2.67 7.777 1.246 0 1.194-3.9 1.184-7.487-1.127 1.904-2.642 1.928-3.854-.36z" fill="#ffb76d"/><path d="M21.587 8.985v.07c0 3.756-1.343 7.777-2.67 7.777-1.246 0-1.194-3.9-1.184-7.487 1.127 1.904 2.642 1.928 3.854-.36z" fill="#ffad68"/></svg>
